images_sukapura_svg/cmd/sc_bezierdelete.svg

<svg viewBox="0 0 16 16" xmlns="http://www.w3.org/2000/svg" xmlns:xlink="http://www.w3.org/1999/xlink"><linearGradient id="a" gradientTransform="matrix(.26458333 0 0 .26458333 101.6 307.58333)" gradientUnits="userSpaceOnUse" x1="18.5" x2="18.5" y1="23" y2="14.5"><stop offset="0" stop-color="#d70015"/><stop offset="1" stop-color="#ff453a"/></linearGradient><linearGradient id="b" gradientUnits="userSpaceOnUse" x1="5.169491" x2="5.101695" xlink:href="#a" y1="6.559322" y2="3.169492"/><linearGradient id="c" gradientTransform="matrix(.80638732 0 0 .79969077 3.161242 3.202245)" gradientUnits="userSpaceOnUse" x1="11.192914" x2="11.111127" xlink:href="#a" y1="15.845822" y2="6.232731"/><linearGradient id="d" gradientUnits="userSpaceOnUse" x1="-19.897808" x2="-19.579052" y1="17.182213" y2="1.995771"><stop offset="0" stop-color="#0040dd"/><stop offset="1" stop-color="#0a84ff"/></linearGradient><linearGradient id="e" gradientUnits="userSpaceOnUse" x1="1.355932" x2="1.644068" xlink:href="#a" y1="15.720339" y2="13.076271"/><linearGradient id="f" gradientUnits="userSpaceOnUse" x1="14.559322" x2="14.576271" xlink:href="#a" y1="4.720339" y2="2.144068"/><g fill="#808080"><path d="m9 .04882813c-.7571642.0347447-1.491064.19018978-2.1523438.44921875-1.3225594.51805792-2.4047058 1.47078842-2.7617187 2.76367192-.113847.4122846-.1375995.8529259-.0859375 1.3085937v-.5703125h.9746094c.012232-.1631366.0347768-.3227484.0761718-.4726562.2513091-.9100888 1.0538869-1.663556 2.1621094-2.0976563 2.2164452-.86820056 5.4638954-.387486 7.0449214 2.46875l.875-.484375c-1.37889-2.49106193-3.861319-3.46946846-6.132812-3.36523437zm-4.5761719 5.95117187c.2613879.5426719.6341764 1.0965908 1.1386719 1.6523438 1.4725638 1.6221782 2.1287138 2.9982502 2.2734375 4.0605472.1447237 1.062296-.1813872 1.820057-.7753906 2.375-1.1880068 1.109885-3.6160578 1.276103-5.3730469.0625l-.5683594.822265c2.1331384 1.473421 5.0045899 1.359557 6.625-.154297.8102051-.756927 1.2649732-1.897409 1.0820313-3.240234s-.9621642-2.8777554-2.5234375-4.5976562c-.3094341-.340873-.5554765-.6679105-.75-.9804688z" fill="url(#d)" fill-rule="evenodd"/><path d="m0 13h3v3h-3z" fill="url(#e)"/><path d="m13 1.9999999h3v3h-3z" fill="url(#f)"/></g><path d="m3 3.0000001v4h4v-4zm1 1h2v2h-2z" fill="url(#b)"/><g stroke-width=".551814"><path d="m9.066352 8.0003894-.7995879.8568455c-.043296.1811308-.2648019.3240674 0 .5712304 1.1284923.4501592 2.0073049 1.2067297 2.9318229 1.9993057-1.4089282 1.149508-2.4373274 2.133718-3.1983521 3.712997-.030055.442767.9611643.718166 1.0661171.57123.4359282-.469212 1.647722-2.241453 2.665291-3.141765l.33881-.392117c1.074603.766012 2.101171 2.149874 3.126073 3.248267l.533057.571231c-.420144-1.862294-1.674419-3.498329-2.782744-4.686026.805765-.978763 1.97954-1.5694614 3.049274-2.4543531l-.072696-.3921529c-1.451535.6387594-2.426006 1.5215242-3.491567 2.212344-1.101378-.9486104-2.15573-1.899197-3.365498-2.6770366z" fill="url(#c)"/><path d="m7.4023438 8.3515625a1.0031474 1.0031474 0 0 0 -.109375.2734375c.0544904-.2279637.0116066-.1623424-.0996094.1953125-.055608.1788274-.0840578.4717352-.0019532.7363281.0821047.2645929.2403571.4614344.3925782.6035154a1.0031474 1.0031474 0 0 0 .3125.199219c.2601654.103781.508942.260886.7539062.435547-.2226923-.759804-.6325832-1.5746766-1.2480468-2.4433595zm1.4550781 3.9062495c-.6841699.699621-1.2903797 1.469143-1.7617188 2.447266a1.0031474 1.0031474 0 0 0 -.0957031.367188c-.0066258.097609.0055689.188203.0195312.277343.2600448-.153079.5054219-.326476.7246094-.53125.6691653-.625161 1.0880673-1.514199 1.1132813-2.560547z" fill="#fff" fill-opacity=".784314"/></g></svg>

<?xml version="1.0" encoding="UTF-8" standalone="no"?>
<svg
   xmlns:dc="http://purl.org/dc/elements/1.1/"
   xmlns:cc="http://creativecommons.org/ns#"
   xmlns:rdf="http://www.w3.org/1999/02/22-rdf-syntax-ns#"
   xmlns:svg="http://www.w3.org/2000/svg"
   xmlns="http://www.w3.org/2000/svg"
   xmlns:xlink="http://www.w3.org/1999/xlink"
   xmlns:sodipodi="http://sodipodi.sourceforge.net/DTD/sodipodi-0.dtd"
   xmlns:inkscape="http://www.inkscape.org/namespaces/inkscape"
   viewBox="0 0 16 16"
   version="1.1"
   id="svg14"
   sodipodi:docname="sc_bezierdelete.svg"
   inkscape:version="0.92.3 (unknown)">
  <metadata
     id="metadata20">
    <rdf:RDF>
      <cc:Work
         rdf:about="">
        <dc:format>image/svg+xml</dc:format>
        <dc:type
           rdf:resource="http://purl.org/dc/dcmitype/StillImage" />
      </cc:Work>
    </rdf:RDF>
  </metadata>
  <defs
     id="defs18">
    <linearGradient
       id="d"
       gradientUnits="userSpaceOnUse"
       x1="-19.897808"
       x2="-19.579052"
       y1="17.182213"
       y2="1.9957711">
      <stop
         offset="0"
         stop-color="#0040dd"
         id="stop9" />
      <stop
         offset="1"
         stop-color="#0a84ff"
         id="stop11" />
    </linearGradient>
    <linearGradient
       id="b"
       gradientUnits="userSpaceOnUse"
       x1="1.355932"
       x2="1.644068"
       xlink:href="#a"
       y1="15.720339"
       y2="13.076271" />
    <linearGradient
       id="a"
       gradientTransform="matrix(0.26458333,0,0,0.26458333,101.6,307.58333)"
       gradientUnits="userSpaceOnUse"
       x1="18.5"
       x2="18.5"
       y1="23"
       y2="14.5">
      <stop
         offset="0"
         stop-color="#d70015"
         id="stop2" />
      <stop
         offset="1"
         stop-color="#ff453a"
         id="stop4" />
    </linearGradient>
    <linearGradient
       id="c"
       gradientUnits="userSpaceOnUse"
       x1="14.559322"
       x2="14.576271"
       xlink:href="#a"
       y1="4.7203388"
       y2="2.144068" />
    <linearGradient
       id="e"
       gradientUnits="userSpaceOnUse"
       x1="5.1694908"
       x2="5.1016951"
       xlink:href="#a"
       y1="6.5593219"
       y2="3.169492" />
    <linearGradient
       inkscape:collect="always"
       xlink:href="#a"
       id="linearGradient879"
       x1="11.192914"
       y1="15.845822"
       x2="11.111127"
       y2="6.2327313"
       gradientUnits="userSpaceOnUse"
       gradientTransform="matrix(0.80638732,0,0,0.79969077,3.161242,3.2022453)" />
    <linearGradient
       id="d-3"
       gradientUnits="userSpaceOnUse"
       x1="-19.897808"
       x2="-19.579052"
       y1="17.182213"
       y2="1.9957711">
      <stop
         offset="0"
         stop-color="#0040dd"
         id="stop9-6" />
      <stop
         offset="1"
         stop-color="#0a84ff"
         id="stop11-7" />
    </linearGradient>
    <linearGradient
       id="b-5"
       gradientUnits="userSpaceOnUse"
       x1="1.355932"
       x2="1.644068"
       xlink:href="#a"
       y1="15.720339"
       y2="13.076271" />
    <linearGradient
       id="c-6"
       gradientUnits="userSpaceOnUse"
       x1="14.559322"
       x2="14.576271"
       xlink:href="#a"
       y1="4.7203388"
       y2="2.144068" />
  </defs>
  <sodipodi:namedview
     pagecolor="#ffffff"
     bordercolor="#666666"
     borderopacity="1"
     objecttolerance="10"
     gridtolerance="10"
     guidetolerance="10"
     inkscape:pageopacity="0"
     inkscape:pageshadow="2"
     inkscape:window-width="1366"
     inkscape:window-height="706"
     id="namedview16"
     showgrid="false"
     inkscape:snap-global="false"
     inkscape:zoom="64"
     inkscape:cx="11.339953"
     inkscape:cy="4.6827543"
     inkscape:window-x="0"
     inkscape:window-y="0"
     inkscape:window-maximized="1"
     inkscape:current-layer="svg14">
    <inkscape:grid
       type="xygrid"
       id="grid883" />
  </sodipodi:namedview>
  <g
     style="fill:#808080"
     id="g21">
    <path
       style="fill:url(#d-3);fill-rule:evenodd"
       inkscape:connector-curvature="0"
       d="M 9,0.04882813 C 8.2428358,0.08357283 7.508936,0.23901791 6.8476562,0.49804688 5.5250968,1.0161048 4.4429504,1.9688353 4.0859375,3.2617188 3.9720905,3.6740034 3.948338,4.1146447 4,4.5703125 V 4 H 4.9746094 C 4.9868414,3.8368634 5.0093862,3.6772516 5.0507812,3.5273438 5.3020903,2.617255 6.1046681,1.8637878 7.2128906,1.4296875 9.4293358,0.56148694 12.676786,1.0422015 14.257812,3.8984375 l 0.875,-0.484375 C 13.753922,0.92300057 11.271493,-0.05540596 9,0.04882813 Z M 4.4238281,6 C 4.685216,6.5426719 5.0580045,7.0965908 5.5625,7.6523438 7.0350638,9.274522 7.6912138,10.650594 7.8359375,11.712891 c 0.1447237,1.062296 -0.1813872,1.820057 -0.7753906,2.375 -1.1880068,1.109885 -3.6160578,1.276103 -5.3730469,0.0625 l -0.5683594,0.822265 c 2.1331384,1.473421 5.0045899,1.359557 6.625,-0.154297 C 8.5543457,14.061432 9.0091138,12.92095 8.8261719,11.578125 8.64323,10.2353 7.8640077,8.7003696 6.3027344,6.9804688 5.9933003,6.6395958 5.7472579,6.3125583 5.5527344,6 Z"
       id="path15" />
    <path
       style="fill:url(#b-5)"
       inkscape:connector-curvature="0"
       d="m 0,13 h 3 v 3 H 0 Z"
       id="path17" />
    <path
       style="fill:url(#c-6)"
       inkscape:connector-curvature="0"
       d="m 13,1.9999999 h 3 v 3 h -3 z"
       id="path19" />
  </g>
  <path
     inkscape:connector-curvature="0"
     style="fill:url(#e)"
     d="m 3,3.0000001 v 4 h 4 v -4 z m 1,1 h 2 v 2 H 4 Z"
     id="path23" />
  <path
     inkscape:connector-curvature="0"
     d="M 9.066352,8.0003894 8.2667641,8.8572349 c -0.043296,0.1811308 -0.2648019,0.3240674 0,0.5712304 1.1284923,0.4501592 2.0073049,1.2067297 2.9318229,1.9993057 -1.4089282,1.149508 -2.4373274,2.133718 -3.1983521,3.712997 -0.030055,0.442767 0.9611643,0.718166 1.0661171,0.57123 0.4359282,-0.469212 1.647722,-2.241453 2.665291,-3.141765 l 0.33881,-0.392117 c 1.074603,0.766012 2.101171,2.149874 3.126073,3.248267 l 0.533057,0.571231 c -0.420144,-1.862294 -1.674419,-3.498329 -2.782744,-4.686026 0.805765,-0.978763 1.97954,-1.5694614 3.049274,-2.4543531 L 15.923417,8.465082 C 14.471882,9.1038414 13.497411,9.9866062 12.43185,10.677426 11.330472,9.7288156 10.27612,8.778229 9.066352,8.0003894 Z"
     id="path7"
     style="fill:url(#linearGradient879);fill-opacity:1;stroke-width:0.55181444"
     sodipodi:nodetypes="ccccccccccccccc" />
  <path
     style="fill:#ffffff;fill-opacity:0.78431374;stroke-width:0.55181444"
     d="M 7.4023438 8.3515625 A 1.0031474 1.0031474 0 0 0 7.2929688 8.625 C 7.3474592 8.3970363 7.3045754 8.4626576 7.1933594 8.8203125 C 7.1377514 8.9991399 7.1093016 9.2920477 7.1914062 9.5566406 C 7.2735109 9.8212335 7.4317633 10.018075 7.5839844 10.160156 A 1.0031474 1.0031474 0 0 0 7.8964844 10.359375 C 8.1566498 10.463156 8.4054264 10.620261 8.6503906 10.794922 C 8.4276983 10.035118 8.0178074 9.2202454 7.4023438 8.3515625 z M 8.8574219 12.257812 C 8.173252 12.957433 7.5670422 13.726955 7.0957031 14.705078 A 1.0031474 1.0031474 0 0 0 7 15.072266 C 6.9933742 15.169875 7.0055689 15.260469 7.0195312 15.349609 C 7.279576 15.19653 7.5249531 15.023133 7.7441406 14.818359 C 8.4133059 14.193198 8.8322079 13.30416 8.8574219 12.257812 z "
     id="path959" />
</svg>
